X:1
T:Partition sans titre
C:Compositeur / Arrangeur
L:1/8
M:4/4
I:linebreak $
K:D
V:1 treble nm="Violon" snm="Vln."
V:1
 Ade |"D" f3 f g>f ga |[M:3/4] f2 d>e f/e/d |[M:4/4]"G" B3 d cd e>A |"D" f4- fAde | f3 f g>f ga | %6
[M:3/4] f2 d>e f/e/d |[M:4/4]"G" B3 d cd e>A |"D" d4- dfdc |"G" B3 d c>A ce |"D" d2 A3 ddc | %11
"G" B3 d"A" cAce |"D" d4- dfdc |"G" B3 d"A" c>A ce |"D" d2 A3 ddc |"G" B3 d"A" cAce |"D" d4- d |] %17
